storage/app/icons/phosphoricons/regular/joystick.svg

<svg xmlns="http://www.w3.org/2000/svg" fill="currentColor" viewBox="0 0 256 256"><path d="M208 144h-72V95.19a40 40 0 1 0-16 0V144H48a16 16 0 0 0-16 16v48a16 16 0 0 0 16 16h160a16 16 0 0 0 16-16v-48a16 16 0 0 0-16-16M104 56a24 24 0 1 1 24 24 24 24 0 0 1-24-24m104 152H48v-48h160zm-40-96h32a8 8 0 0 1 0 16h-32a8 8 0 0 1 0-16"/></svg>

<svg xmlns="http://www.w3.org/2000/svg" viewBox="0 0 256 256" fill="currentColor"><path d="M208,144H136V95.19a40,40,0,1,0-16,0V144H48a16,16,0,0,0-16,16v48a16,16,0,0,0,16,16H208a16,16,0,0,0,16-16V160A16,16,0,0,0,208,144ZM104,56a24,24,0,1,1,24,24A24,24,0,0,1,104,56ZM208,208H48V160H208v48Zm-40-96h32a8,8,0,0,1,0,16H168a8,8,0,0,1,0-16Z"/></svg>
